static/images/mainTabs1.svg

<svg height="86" viewBox="0 0 43 86" width="43" xmlns="http://www.w3.org/2000/svg"><path d="m139.762265 237h-18.105469v-49.570312l.175781-8.144532.292969-8.90625c-3.007827 3.007828-5.09765 4.980464-6.269531 5.917969l-9.84375 7.910156-8.7304688-10.898437 27.5976558-21.972656h14.882813z" fill="#caf4ff" fill-rule="evenodd" opacity=".4" transform="translate(-97 -151)"/></svg>

<?xml version="1.0" encoding="UTF-8"?>
<svg width="43px" height="86px" viewBox="0 0 43 86" version="1.1" xmlns="http://www.w3.org/2000/svg" xmlns:xlink="http://www.w3.org/1999/xlink">
    <!-- Generator: sketchtool 46.2 (44496) - http://www.bohemiancoding.com/sketch -->
    <title>C78E8267-F30E-44F8-A745-DCCB312D656A</title>
    <desc>Created with sketchtool.</desc>
    <defs></defs>
    <g id="Page-1" stroke="none" stroke-width="1" fill="none" fill-rule="evenodd" opacity="0.400000006">
        <g id="Home-Page-10/04/2017-screen-Install-Rakam" transform="translate(-296.000000, -1021.000000)" fill="#CAF4FF">
            <g id="How-Rakam-Works" transform="translate(166.000000, 757.000000)">
                <g id="create-a-project" transform="translate(33.000000, 113.000000)">
                    <path d="M139.762265,237 L121.656796,237 L121.656796,187.429688 L121.832577,179.285156 L122.125546,170.378906 C119.117719,173.386734 117.027896,175.35937 115.856015,176.296875 L106.012265,184.207031 L97.2817962,173.308594 L124.879452,151.335938 L139.762265,151.335938 L139.762265,237 Z" id="1"></path>
                </g>
            </g>
        </g>
    </g>
</svg>
